X: 030385
T: Cat's Rambles
S: Jack Coen
Z: B.Black
M: 6/8
L: 1/8
R: jig
K: D
D | FAF EFE | DFA dAG | FAF EDE | F2 D DFA |
B2 d A2 d | F2 A AFD | FAF EDE | F2 D D2 :|
E | DFA ded | ABF AFD | DFA d2 c | Bcd ecA |
Aff d2 e | fdf ecA | FAF EDE | F2 D D2 :|
